X:1
T:The Humours Of Kiltyclogher
R:jig
M:6/8
L:1/8
K:Ador
B|:AGE ~G2E|cEE EFG|DED ~D2E|GED ~D2B|
|AGE ~G2E|cEE EFG|ABA BGE|ABA ~A2B:|
|:~c2B ~c2d|ecA ABc|BAG G (3ABc|dBG GAB|
|~c2B ~c2d|ecA ABc|BAG GAB|ABA ~A2B:|